**kern	**silbe	**harmony	**phrase	**leadinstrument	**rhyme	**timestamp	**harte
*ICvox	*	*M4/4	*	*	*	*	*M4/4
*VRlead	*	*	*	*	*	*	*
*Hstimme	*	*	*	*	*	*	*
*	*	*b:	*b:	*b:	*	*b:	*b:
r;	.	1r;	.	r	.	0	N.C.
=1	=1	=1	=1	=1	=1	=1	=1
*>Letter>A	*>Letter>A	*>Letter>A	*>Letter>A	*>Letter>A	*>Letter>A	*>Letter>A	*>Letter>A
*>Label>Intro	*>Label>Intro	*>Label>Intro	*>Label>Intro	*>Label>Intro	*>Label>Intro	*>Label>Intro	*>Label>Intro
*M4/4	*	*	*	*	*	*	*
*clefF4	*	*	*	*	*	*	*
1r	.	1Bmm	newline	synthesizer	.	1.022	B:min7
=2	=2	=2	=2	=2	=2	=2	=2
1r	.	1Bmm	.	synthesizer	.	2.473	B:min7
=3	=3	=3	=3	=3	=3	=3	=3
1r	.	1Bmm	.	synthesizer	.	3.924	B:min7
=4	=4	=4	=4	=4	=4	=4	=4
1r	.	1Bmm	.	synthesizer	.	5.376	B:min7
=5	=5	=5	=5	=5	=5	=5	=5
*>Letter>B	*>Letter>B	*>Letter>B	*>Letter>B	*>Letter>B	*>Letter>B	*>Letter>B	*>Letter>B
*>Label>Interlude	*>Label>Interlude	*>Label>Interlude	*>Label>Interlude	*>Label>Interlude	*>Label>Interlude	*>Label>Interlude	*>Label>Interlude
1r	.	1GMM	newline	synthesizer	.	6.827	G:maj7
=6	=6	=6	=6	=6	=6	=6	=6
1r	.	1F#mm	.	synthesizer	.	8.269	F#:min7
=7	=7	=7	=7	=7	=7	=7	=7
1r	.	1Em	.	synthesizer	.	9.711	E:sus2(b7)
=8	=8	=8	=8	=8	=8	=8	=8
1r	.	1Em	.	synthesizer	.	11.153	E:sus2(b7)
=9	=9	=9	=9	=9	=9	=9	=9
1r	.	1GMM	newline	synthesizer	.	12.594	G:maj7
=10	=10	=10	=10	=10	=10	=10	=10
1r	.	1F#mm	.	synthesizer	.	14.04	F#:min7
=11	=11	=11	=11	=11	=11	=11	=11
1r	.	1Em	.	synthesizer	.	15.485	E:sus2(b7)
=12	=12	=12	=12	=12	=12	=12	=12
1r	.	2Em	.	synthesizer	.	16.931	E:sus2(b7)
.	.	4DM	.	synthesizer	.	17.654	D:maj
.	.	4AM	.	synthesizer	.	18.015	A:sus2
=13	=13	=13	=13	=13	=13	=13	=13
*>Letter>A	*>Letter>A	*>Letter>A	*>Letter>A	*>Letter>A	*>Letter>A	*>Letter>A	*>Letter>A
*>Label>Trans	*>Label>Trans	*>Label>Trans	*>Label>Trans	*>Label>Trans	*>Label>Trans	*>Label>Trans	*>Label>Trans
1r	.	1Bmm	newline	drums	.	18.376	B:min7
=14	=14	=14	=14	=14	=14	=14	=14
1r	.	1Bmm	.	drums	.	19.817	B:min7
=15	=15	=15	=15	=15	=15	=15	=15
1r	.	1Bmm	.	drums	.	21.257	B:min7
=16	=16	=16	=16	=16	=16	=16	=16
1r	.	1Bmm	.	drums	.	22.698	B:min7
=17	=17	=17	=17	=17	=17	=17	=17
*>Letter>C	*>Letter>C	*>Letter>C	*>Letter>C	*>Letter>C	*>Letter>C	*>Letter>C	*>Letter>C
*>Label>Verse	*>Label>Verse	*>Label>Verse	*>Label>Verse	*>Label>Verse	*>Label>Verse	*>Label>Verse	*>Label>Verse
4r	.	1Bm	newline	voice	.	24.138	B:min
8F#	Last	.	.	.	.	.	.
4E	night	.	.	.	.	.	.
8D	a	.	.	.	.	.	.
8E	lit-	.	.	.	.	.	.
8F#	-tle	.	.	.	.	.	.
=18	=18	=18	=18	=18	=18	=18	=18
4E	dan-	1Bm	.	voice	.	25.582	B:min
8D	-cer	.	.	.	.	.	.
8r	.	.	.	.	.	.	.
4r	.	.	.	.	.	.	.
4E	came	.	.	.	.	.	.
=19	=19	=19	=19	=19	=19	=19	=19
4F#	danc-	1Bm	.	voice	.	27.026	B:min
4F#	-in'	.	.	.	.	.	.
8E	to	.	.	.	.	.	.
4E	my	.	.	.	.	.	.
[8BB	door.	.	.	.	A	.	.
=20	=20	=20	=20	=20	=20	=20	=20
2BB]	_	1Bm	.	voice	.	28.47	B:min
2r	.	.	.	.	.	.	.
=21	=21	=21	=21	=21	=21	=21	=21
4r	.	1AM	newline	voice	.	29.914	A:sus4
8F#	Last	.	.	.	.	.	.
4E	night	.	.	.	.	.	.
8D	a	.	.	.	.	.	.
8E	lit-	.	.	.	.	.	.
8F#	-tle	.	.	.	.	.	.
=22	=22	=22	=22	=22	=22	=22	=22
4E	an-	1AM	.	voice	.	31.355	A:sus4
4D	-gel	.	.	.	.	.	.
4r	.	.	.	.	.	.	.
4E	came	.	.	.	.	.	.
=23	=23	=23	=23	=23	=23	=23	=23
4F#	pump-	1GMM	.	voice	.	32.795	G:maj7
4F#	-in'	.	.	.	.	.	.
8E	on	.	.	.	.	.	.
4E	my	.	.	.	.	.	.
[8BB	floor.	.	.	.	A	.	.
=24	=24	=24	=24	=24	=24	=24	=24
2BB]	_	2Emm	.	voice	.	34.235	E:min7
2r	.	4DM	.	voice	.	34.956	D:1
.	.	4AM	.	voice	.	35.316	A:1
=25	=25	=25	=25	=25	=25	=25	=25
4r	.	1Bm	newline	voice	.	35.676	B:min
8F#	She	.	.	.	.	.	.
4E	said	.	.	.	.	.	.
8D	uh	.	.	.	.	.	.
4F#	come	.	.	.	.	.	.
=26	=26	=26	=26	=26	=26	=26	=26
4E	ba-	1Bm	.	voice	.	37.125	B:min
4D	-by	.	.	.	.	.	.
4r	.	.	.	.	.	.	.
8F#	bought	.	.	.	.	.	.
8E	a	.	.	.	.	.	.
=27	=27	=27	=27	=27	=27	=27	=27
4F#	li-	1Bm	.	voice	.	38.575	B:min
4F#	-cense	.	.	.	.	.	.
4E	for	.	.	.	.	.	.
4F#	love;	.	.	.	B	.	.
=28	=28	=28	=28	=28	=28	=28	=28
4r	.	1Bm	.	voice	.	40.024	B:min
4r	.	.	.	.	.	.	.
2r	.	.	.	.	.	.	.
=29	=29	=29	=29	=29	=29	=29	=29
4r	.	1AM	newline	voice	.	41.474	A:sus4
8F#	and	.	.	.	.	.	.
4E	if	.	.	.	.	.	.
8D	it	.	.	.	.	.	.
4F#	ex-	.	.	.	.	.	.
=30	=30	=30	=30	=30	=30	=30	=30
4E	-pir-	1AM	.	voice	.	42.912	A:sus4
4D	-es	.	.	.	.	.	.
4r	.	.	.	.	.	.	.
4f#	pray	.	.	.	.	.	.
=31	=31	=31	=31	=31	=31	=31	=31
4f#	help	1GMM	.	voice	.	44.349	G:maj7
4f#	from	.	.	.	.	.	.
4e	a-	.	.	.	.	.	.
4f#	-bove.	.	.	.	B	.	.
=32	=32	=32	=32	=32	=32	=32	=32
4r	.	2Emm	.	voice	.	45.787	E:min7
8f#	be-	.	.	.	.	.	.
8f#	-cause!.	.	.	.	.	.	.
4f	_	4DM	.	voice	.	46.506	D:1
4r	.	4AM	.	voice	.	46.865	A:1
=33	=33	=33	=33	=33	=33	=33	=33
*>Letter>C	*>Letter>C	*>Letter>C	*>Letter>C	*>Letter>C	*>Letter>C	*>Letter>C	*>Letter>C
*>Label>Chorus	*>Label>Chorus	*>Label>Chorus	*>Label>Chorus	*>Label>Chorus	*>Label>Chorus	*>Label>Chorus	*>Label>Chorus
4r	.	1Bm	newline	voice	.	47.225	B:min
8f#	In	.	.	.	.	.	.
8f#	the	.	.	.	.	.	.
8f#	mid-	.	.	.	.	.	.
4f#	-night	.	.	.	.	.	.
8f#	hour	.	.	.	.	.	.
=34	=34	=34	=34	=34	=34	=34	=34
4f	_	1Bm	.	voice	.	48.664	B:min
4r	.	.	.	.	.	.	.
8r	.	.	.	.	.	.	.
8e	she	.	.	.	.	.	.
4f#	cried	.	.	.	.	.	.
=35	=35	=35	=35	=35	=35	=35	=35
4f#	more	1Bm	.	voice	.	50.103	B:min
4r	.	.	.	.	.	.	.
4e	more	.	.	.	.	.	.
8r	.	.	.	.	.	.	.
[8B	more.	.	.	.	.	.	.
=36	=36	=36	=36	=36	=36	=36	=36
4B]	_	1Bm	.	voice	.	51.542	B:min
4r	.	.	.	.	.	.	.
2r	.	.	.	.	.	.	.
=37	=37	=37	=37	=37	=37	=37	=37
4r	.	1DM	newline	voice	.	52.981	D:maj/5
8f#	With	.	.	.	.	.	.
8f#	a	.	.	.	.	.	.
8f#	re-	.	.	.	.	.	.
4f#	-bel	.	.	.	.	.	.
8f#	yell	.	.	.	.	.	.
=38	=38	=38	=38	=38	=38	=38	=38
4f	_	1DM	.	voice	.	54.426	D:maj/5
4r	.	.	.	.	.	.	.
8r	.	.	.	.	.	.	.
8e	she	.	.	.	.	.	.
4f#	cried	.	.	.	.	.	.
=39	=39	=39	=39	=39	=39	=39	=39
4f#	more	1GMM	.	voice	.	55.87	G:maj7
4r	.	.	.	.	.	.	.
4e	more	.	.	.	.	.	.
8r	.	.	.	.	.	.	.
[8B	more.	.	.	.	.	.	.
=40	=40	=40	=40	=40	=40	=40	=40
8B]	_	2Emm	.	voice	.	57.315	E:min7
8d	_	.	.	.	.	.	.
2B	_	.	.	.	.	.	.
.	.	4DM	.	voice	.	58.037	D:1
4r	.	4AM	.	voice	.	58.398	A:1
=41	=41	=41	=41	=41	=41	=41	=41
4r	.	1Bm	newline	voice	.	58.759	B:min
8f#	In	.	.	.	.	.	.
8f#	the	.	.	.	.	.	.
8f#	mid-	.	.	.	.	.	.
4f#	-night	.	.	.	.	.	.
8f#	hour	.	.	.	.	.	.
=42	=42	=42	=42	=42	=42	=42	=42
4f	_	1Bm	.	voice	.	60.201	B:min
8f	babe	.	.	.	.	.	.
8r	.	.	.	.	.	.	.
2r	.	.	.	.	.	.	.
=43	=43	=43	=43	=43	=43	=43	=43
4f#	more	1Bm	.	voice	.	61.643	B:min
4r	.	.	.	.	.	.	.
4e	more	.	.	.	.	.	.
8r	.	.	.	.	.	.	.
[8B	more.	.	.	.	.	.	.
=44	=44	=44	=44	=44	=44	=44	=44
2B]	_	1Bm	.	voice	.	63.085	B:min
2r	.	.	.	.	.	.	.
=45	=45	=45	=45	=45	=45	=45	=45
4r	.	1DM	newline	voice	.	64.526	D:maj/5
8f#	With	.	.	.	.	.	.
8f#	a	.	.	.	.	.	.
8f#	re-	.	.	.	.	.	.
4f#	-bel	.	.	.	.	.	.
8f#	yell	.	.	.	.	.	.
=46	=46	=46	=46	=46	=46	=46	=46
2f	_	1DM	.	voice	.	65.966	D:maj/5
2r	.	.	.	.	.	.	.
=47	=47	=47	=47	=47	=47	=47	=47
2f#	more	1GMM	.	voice	.	67.406	G:maj7
4.e	more	.	.	.	.	.	.
[8f#	more.	.	.	.	.	.	.
=48	=48	=48	=48	=48	=48	=48	=48
4f#]	_	2Emm	.	voice	.	68.847	E:min7
4r	.	.	.	.	.	.	.
4f#	more	4DM	.	voice	.	69.567	D:1
4f#	more	4AM	.	voice	.	69.927	A:1
=49	=49	=49	=49	=49	=49	=49	=49
*>Letter>A	*>Letter>A	*>Letter>A	*>Letter>A	*>Letter>A	*>Letter>A	*>Letter>A	*>Letter>A
*>Label>Trans	*>Label>Trans	*>Label>Trans	*>Label>Trans	*>Label>Trans	*>Label>Trans	*>Label>Trans	*>Label>Trans
4f#	more.	1Bmm	newline	drums	.	70.287	B:min7
4B	_	.	.	.	.	.	.
2r	.	.	.	.	.	.	.
=50	=50	=50	=50	=50	=50	=50	=50
1r	.	1Bmm	.	drums	.	71.734	B:min7
=51	=51	=51	=51	=51	=51	=51	=51
1r	.	1Bmm	.	drums	.	73.18	B:min7
=52	=52	=52	=52	=52	=52	=52	=52
1r	.	1Bmm	.	drums	.	74.627	B:min7
=53	=53	=53	=53	=53	=53	=53	=53
*>Letter>C	*>Letter>C	*>Letter>C	*>Letter>C	*>Letter>C	*>Letter>C	*>Letter>C	*>Letter>C
*>Label>Verse	*>Label>Verse	*>Label>Verse	*>Label>Verse	*>Label>Verse	*>Label>Verse	*>Label>Verse	*>Label>Verse
4r	.	1Bm	newline	voice	.	76.074	B:min
8F#	She	.	.	.	.	.	.
4E	don't	.	.	.	.	.	.
8D	_	.	.	.	.	.	.
4F#	like	.	.	.	.	.	.
=54	=54	=54	=54	=54	=54	=54	=54
4E	slav-	1Bm	.	voice	.	77.522	B:min
4D	-ery.	.	.	.	.	.	.
8r	.	.	.	.	.	.	.
8D	she	.	.	.	.	.	.
4E	won't	.	.	.	.	.	.
=55	=55	=55	=55	=55	=55	=55	=55
4F#	sit	1Bm	.	voice	.	78.971	B:min
4r	.	.	.	.	.	.	.
4G	and	.	.	.	.	.	.
4F#	beg.	.	.	.	C	.	.
=56	=56	=56	=56	=56	=56	=56	=56
1r	.	1Bm	.	voice	.	80.419	B:min
=57	=57	=57	=57	=57	=57	=57	=57
4r	.	1DM	newline	voice	.	81.867	D:maj/5
8F#	But	.	.	.	.	.	.
4E	when	.	.	.	.	.	.
8D	I'm	.	.	.	.	.	.
8E	tired	.	.	.	.	.	.
8F#	and	.	.	.	.	.	.
=58	=58	=58	=58	=58	=58	=58	=58
4E	lone-	1DM	.	voice	.	83.314	D:maj/5
4.D	-ly:	.	.	.	.	.	.
8r	.	.	.	.	.	.	.
4E	she's	.	.	.	.	.	.
=59	=59	=59	=59	=59	=59	=59	=59
4F#	near	1GMM	.	voice	.	84.76	G:maj7
4F#	to	.	.	.	.	.	.
2BB	bed.	.	.	.	C	.	.
=60	=60	=60	=60	=60	=60	=60	=60
1r	.	2Emm	.	voice	.	86.207	E:min7
.	.	4DM	.	voice	.	86.931	D:1
.	.	4AM	.	voice	.	87.292	A:1
=61	=61	=61	=61	=61	=61	=61	=61
4r	.	1Bm	newline	voice	.	87.654	B:min
4F#	What	.	.	.	.	.	.
8F#	set	.	.	.	.	.	.
4F#	you	.	.	.	.	.	.
[8F#	free,	.	.	.	D	.	.
=62	=62	=62	=62	=62	=62	=62	=62
4F#]	_	1Bm	.	voice	.	89.089	B:min
8r	.	.	.	.	.	.	.
8D	and	.	.	.	.	.	.
8F#	brought	.	.	.	.	.	.
8F#	you	.	.	.	.	.	.
8F#	to	.	.	.	.	.	.
[8F#	me	.	.	.	D	.	.
=63	=63	=63	=63	=63	=63	=63	=63
4.F#]	_	1Bm	.	voice	.	90.524	B:min
[8BB	babe?.	.	.	.	.	.	.
4BB]	_	.	.	.	.	.	.
4r	.	.	.	.	.	.	.
=64	=64	=64	=64	=64	=64	=64	=64
1r	.	1Bm	.	voice	.	91.96	B:min
=65	=65	=65	=65	=65	=65	=65	=65
4r	.	1DM	newline	voice	.	93.395	D:maj/5
4f#	What	.	.	.	.	.	.
4f#	set	.	.	.	.	.	.
4e#	you	.	.	.	.	.	.
=66	=66	=66	=66	=66	=66	=66	=66
2f#	free?.	1DM	.	voice	D	94.848	D:maj/5
8r	.	.	.	.	.	.	.
8e#	I	.	.	.	.	.	.
8f#	need	.	.	.	.	.	.
8f#	you	.	.	.	.	.	.
=67	=67	=67	=67	=67	=67	=67	=67
8f#	here	1GMM	.	voice	.	96.302	G:maj7
8e#	_	.	.	.	.	.	.
4f#	by	.	.	.	.	.	.
8f#	me.	.	.	.	D	.	.
4.f	_	.	.	.	.	.	.
=68	=68	=68	=68	=68	=68	=68	=68
4r	.	2Emm	.	voice	.	97.755	E:min7
8f#	be-	.	.	.	.	.	.
[8f#	-cause!	.	.	.	.	.	.
2f#]	_	4DM	.	voice	.	98.482	D:1
.	.	4AM	.	voice	.	98.846	A:1
=69	=69	=69	=69	=69	=69	=69	=69
*>Letter>C	*>Letter>C	*>Letter>C	*>Letter>C	*>Letter>C	*>Letter>C	*>Letter>C	*>Letter>C
*>Label>Chorus	*>Label>Chorus	*>Label>Chorus	*>Label>Chorus	*>Label>Chorus	*>Label>Chorus	*>Label>Chorus	*>Label>Chorus
4r	.	1Bm	newline	voice	.	99.209	B:min
8f#	In	.	.	.	.	.	.
8f#	the	.	.	.	.	.	.
8f#	mid-	.	.	.	.	.	.
4f#	-night	.	.	.	.	.	.
8f#	hour	.	.	.	.	.	.
=70	=70	=70	=70	=70	=70	=70	=70
4f	_	1Bm	.	voice	.	100.633	B:min
4r	.	.	.	.	.	.	.
8r	.	.	.	.	.	.	.
8e	she	.	.	.	.	.	.
4f#	cried	.	.	.	.	.	.
=71	=71	=71	=71	=71	=71	=71	=71
4f#	more	1Bm	.	voice	.	102.056	B:min
4r	.	.	.	.	.	.	.
4e	more	.	.	.	.	.	.
8r	.	.	.	.	.	.	.
[8B	more	.	.	.	.	.	.
=72	=72	=72	=72	=72	=72	=72	=72
8B]	_	1Bm	.	voice	.	103.48	B:min
8d	_	.	.	.	.	.	.
4B	_	.	.	.	.	.	.
2r	.	.	.	.	.	.	.
=73	=73	=73	=73	=73	=73	=73	=73
4r	.	1DM	newline	voice	.	104.903	D:maj/5
8f#	With	.	.	.	.	.	.
8f#	a	.	.	.	.	.	.
8f#	re-	.	.	.	.	.	.
4f#	-bel	.	.	.	.	.	.
8f#	yell	.	.	.	.	.	.
=74	=74	=74	=74	=74	=74	=74	=74
4f	_	1DM	.	voice	.	106.354	D:maj/5
4r	.	.	.	.	.	.	.
8r	.	.	.	.	.	.	.
8e	she	.	.	.	.	.	.
4f#	cried	.	.	.	.	.	.
=75	=75	=75	=75	=75	=75	=75	=75
4f#	more	1GMM	.	voice	.	107.805	G:maj7
4r	.	.	.	.	.	.	.
4e	more	.	.	.	.	.	.
8r	.	.	.	.	.	.	.
[8B	more.	.	.	.	.	.	.
=76	=76	=76	=76	=76	=76	=76	=76
8B]	_	2Emm	.	voice	.	109.255	E:min7
8d	_	.	.	.	.	.	.
4.B	_	.	.	.	.	.	.
.	.	4DM	.	voice	.	109.981	D:1
8r	.	.	.	.	.	.	.
4r	.	4AM	.	voice	.	110.343	A:1
=77	=77	=77	=77	=77	=77	=77	=77
4r	.	1Bm	newline	voice	.	110.706	B:min
8f#	In	.	.	.	.	.	.
8f#	the	.	.	.	.	.	.
8f#	mid-	.	.	.	.	.	.
4f#	-night	.	.	.	.	.	.
8f#	hour	.	.	.	.	.	.
=78	=78	=78	=78	=78	=78	=78	=78
4f	_	1Bm	.	voice	.	112.148	B:min
2f#	babe:	.	.	.	.	.	.
4r	.	.	.	.	.	.	.
=79	=79	=79	=79	=79	=79	=79	=79
4f#	more	1Bm	.	voice	.	113.59	B:min
4r	.	.	.	.	.	.	.
4e	more	.	.	.	.	.	.
8r	.	.	.	.	.	.	.
[8B	more.	.	.	.	.	.	.
=80	=80	=80	=80	=80	=80	=80	=80
2B]	_	1Bm	.	voice	.	115.031	B:min
2r	.	.	.	.	.	.	.
=81	=81	=81	=81	=81	=81	=81	=81
4r	.	1DM	newline	voice	.	116.473	D:maj/5
8f#	With	.	.	.	.	.	.
8f#	a	.	.	.	.	.	.
8f#	re-	.	.	.	.	.	.
4f#	-bel	.	.	.	.	.	.
8f#	yell	.	.	.	.	.	.
=82	=82	=82	=82	=82	=82	=82	=82
2.f	_	1DM	.	voice	.	117.92	D:maj/5
4r	.	.	.	.	.	.	.
=83	=83	=83	=83	=83	=83	=83	=83
2f#	more	1GMM	.	voice	.	119.367	G:maj7
4.e	more	.	.	.	.	.	.
[8f#	more.	.	.	.	.	.	.
=84	=84	=84	=84	=84	=84	=84	=84
2f#]	_	1GMM	.	voice	.	120.814	G:maj7
2r	.	.	.	.	.	.	.
=85	=85	=85	=85	=85	=85	=85	=85
*>Letter>B	*>Letter>B	*>Letter>B	*>Letter>B	*>Letter>B	*>Letter>B	*>Letter>B	*>Letter>B
*>Label>Interlude	*>Label>Interlude	*>Label>Interlude	*>Label>Interlude	*>Label>Interlude	*>Label>Interlude	*>Label>Interlude	*>Label>Interlude
1r	.	1GMM	newline	synthesizer	.	122.26	G:maj7
=86	=86	=86	=86	=86	=86	=86	=86
1r	.	1F#mm	.	synthesizer	.	123.704	F#:min7
=87	=87	=87	=87	=87	=87	=87	=87
8r	.	1Em	.	synthesizer	.	125.148	E:sus2(b7)
8BB	I	.	.	.	.	.	.
8E	hear	.	.	.	.	.	.
8D	he	.	.	.	.	.	.
4E	lives	.	.	.	.	.	.
8E	in	.	.	.	.	.	.
8D	a	.	.	.	.	.	.
=88	=88	=88	=88	=88	=88	=88	=88
4E	his	1Em	.	synthesizer	.	126.592	E:sus2(b7)
4F#	own	.	.	.	.	.	.
8E	hea-	.	.	.	(D	.	.
4D	-ven.	.	.	.	d)	.	.
[8BB	_	.	.	.	.	.	.
=89	=89	=89	=89	=89	=89	=89	=89
4BB]	_	1GMM	newline	synthesizer	.	128.036	G:maj7
4r	.	.	.	.	.	.	.
2r	.	.	.	.	.	.	.
=90	=90	=90	=90	=90	=90	=90	=90
2r	.	1F#mm	.	synthesizer	.	129.483	F#:min7
4.r	.	.	.	.	.	.	.
8D	Col-	.	.	.	.	.	.
=91	=91	=91	=91	=91	=91	=91	=91
4E	-lects	1Em	.	synthesizer	.	130.93	E:sus2(b7)
8E	it	.	.	.	.	.	.
8D	to	.	.	.	.	.	.
4E	go	.	.	.	.	.	.
8E	from	.	.	.	.	.	.
8D	the	.	.	.	.	.	.
=92	=92	=92	=92	=92	=92	=92	=92
8E	se-	1Em	.	synthesizer	.	132.377	E:sus2(b7)
8E	-ven	.	.	.	.	.	.
8F#	e-	.	.	.	.	.	.
4E	-lev-	.	.	.	(D	.	.
4D	-en.	.	.	.	d)	.	.
[8BB	_	.	.	.	.	.	.
=93	=93	=93	=93	=93	=93	=93	=93
8BB]	_	1GMM	newline	synthesizer	.	133.824	G:maj7
4GG	_	.	.	.	.	.	.
8r	.	.	.	.	.	.	.
2r	.	.	.	.	.	.	.
=94	=94	=94	=94	=94	=94	=94	=94
2r	.	1F#mm	.	synthesizer	.	135.254	F#:min7
8r	.	.	.	.	.	.	.
4E	Well	.	.	.	.	.	.
8D	he's	.	.	.	.	.	.
=95	=95	=95	=95	=95	=95	=95	=95
8E	out	1Em	.	synthesizer	.	136.684	E:sus2(b7)
8D	_	.	.	.	.	.	.
8E	all	.	.	.	.	.	.
8D	_	.	.	.	.	.	.
4E	night	.	.	.	.	.	.
8E	to	.	.	.	.	.	.
8D	col-	.	.	.	.	.	.
=96	=96	=96	=96	=96	=96	=96	=96
4E	-lect	1Em	.	synthesizer	.	138.114	E:sus2(b7)
4F#	a	.	.	.	.	.	.
8E	fare.	.	.	.	E	.	.
4D	_	.	.	.	.	.	.
[8BB	_	.	.	.	.	.	.
=97	=97	=97	=97	=97	=97	=97	=97
8BB]	_	1GMM	newline	synthesizer	.	139.544	G:maj7
8r	.	.	.	.	.	.	.
4r	.	.	.	.	.	.	.
2r	.	.	.	.	.	.	.
=98	=98	=98	=98	=98	=98	=98	=98
2.r	.	1F#mm	.	synthesizer	.	140.998	F#:min7
8E	Just	.	.	.	.	.	.
8D	so	.	.	.	.	.	.
=99	=99	=99	=99	=99	=99	=99	=99
4E	long	1Em	.	synthesizer	.	142.453	E:sus2(b7)
8E	just	.	.	.	.	.	.
8D	so	.	.	.	.	.	.
8E	long	.	.	.	.	.	.
8D	it	.	.	.	.	.	.
8E	don't	.	.	.	.	.	.
8D	mess	.	.	.	.	.	.
=100	=100	=100	=100	=100	=100	=100	=100
8E	up	2Em	.	synthesizer	.	143.907	E:sus2(b7)
8r	.	.	.	.	.	.	.
4F#	his	.	.	.	.	.	.
8E	hair.	4DM	.	synthesizer	E	144.635	D:maj
4.D	_	.	.	.	.	.	.
.	.	4AM	.	synthesizer	.	144.998	A:sus2
=101	=101	=101	=101	=101	=101	=101	=101
*>Letter>A	*>Letter>A	*>Letter>A	*>Letter>A	*>Letter>A	*>Letter>A	*>Letter>A	*>Letter>A
*>Label>Trans	*>Label>Trans	*>Label>Trans	*>Label>Trans	*>Label>Trans	*>Label>Trans	*>Label>Trans	*>Label>Trans
2BB	_	1Bm	newline	guitar	.	145.362	B:min
2r	.	.	.	.	.	.	.
=102	=102	=102	=102	=102	=102	=102	=102
1r	.	1Bm	.	guitar	.	146.798	B:min
=103	=103	=103	=103	=103	=103	=103	=103
1r	.	1Bmm	.	guitar	.	148.235	B:min7
=104	=104	=104	=104	=104	=104	=104	=104
1r	.	1Bmm	.	guitar	.	149.671	B:min7
=105	=105	=105	=105	=105	=105	=105	=105
*>Letter>C	*>Letter>C	*>Letter>C	*>Letter>C	*>Letter>C	*>Letter>C	*>Letter>C	*>Letter>C
*>Label>Solo	*>Label>Solo	*>Label>Solo	*>Label>Solo	*>Label>Solo	*>Label>Solo	*>Label>Solo	*>Label>Solo
1r	.	1Bm	newline	guitar	.	151.107	B:min
=106	=106	=106	=106	=106	=106	=106	=106
1r	.	1Bm	.	guitar	.	152.539	B:min
=107	=107	=107	=107	=107	=107	=107	=107
1r	.	1Bm	.	guitar	.	153.971	B:min
=108	=108	=108	=108	=108	=108	=108	=108
1r	.	1Bm	.	guitar	.	155.403	B:min
=109	=109	=109	=109	=109	=109	=109	=109
1r	.	1DM	newline	guitar	.	156.834	D:maj/5
=110	=110	=110	=110	=110	=110	=110	=110
1r	.	1DM	.	guitar	.	158.264	D:maj/5
=111	=111	=111	=111	=111	=111	=111	=111
1r	.	1GMM	.	guitar	.	159.694	G:maj7
=112	=112	=112	=112	=112	=112	=112	=112
1r	.	2Emm	.	guitar	.	161.124	E:min7
.	.	4DM	.	guitar	.	161.839	D:1
.	.	4AM	.	guitar	.	162.196	A:1
=113	=113	=113	=113	=113	=113	=113	=113
1r	.	1Bm	newline	guitar	.	162.554	B:min
=114	=114	=114	=114	=114	=114	=114	=114
1r	.	1Bm	.	guitar	.	164.014	B:min
=115	=115	=115	=115	=115	=115	=115	=115
1r	.	1Bm	.	guitar	.	165.474	B:min
=116	=116	=116	=116	=116	=116	=116	=116
1r	.	1Bm	.	guitar	.	166.934	B:min
=117	=117	=117	=117	=117	=117	=117	=117
1r	.	1DM	newline	guitar	.	168.394	D:maj/5
=118	=118	=118	=118	=118	=118	=118	=118
1r	.	1DM	.	guitar	.	169.833	D:maj/5
=119	=119	=119	=119	=119	=119	=119	=119
1r	.	1GMM	.	guitar	.	171.272	G:maj7
=120	=120	=120	=120	=120	=120	=120	=120
1r	.	2Emm	.	guitar	.	172.711	E:min7
.	.	4DM	.	guitar	.	173.43	D:1
.	.	4AM	.	guitar	.	173.79	A:1
=121	=121	=121	=121	=121	=121	=121	=121
*>Letter>A2	*>Letter>A2	*>Letter>A2	*>Letter>A2	*>Letter>A2	*>Letter>A2	*>Letter>A2	*>Letter>A2
*>Label>Trans	*>Label>Trans	*>Label>Trans	*>Label>Trans	*>Label>Trans	*>Label>Trans	*>Label>Trans	*>Label>Trans
1r	.	1N	newline	drums	.	174.15	N.C.
=122	=122	=122	=122	=122	=122	=122	=122
1r	.	1N	.	drums	.	175.599	N.C.
=123	=123	=123	=123	=123	=123	=123	=123
1r	.	1N	.	drums	.	177.049	N.C.
=124	=124	=124	=124	=124	=124	=124	=124
1r	.	1N	.	drums	.	178.498	N.C.
=125	=125	=125	=125	=125	=125	=125	=125
1r	.	1N	newline	drums	.	179.948	N.C.
=126	=126	=126	=126	=126	=126	=126	=126
1r	.	1N	.	drums	.	181.397	N.C.
=127	=127	=127	=127	=127	=127	=127	=127
1r	.	1N	.	drums	.	182.847	N.C.
=128	=128	=128	=128	=128	=128	=128	=128
1r	.	1N	.	drums	.	184.296	N.C.
=129	=129	=129	=129	=129	=129	=129	=129
*>Letter>C2	*>Letter>C2	*>Letter>C2	*>Letter>C2	*>Letter>C2	*>Letter>C2	*>Letter>C2	*>Letter>C2
*>Label>Bridge	*>Label>Bridge	*>Label>Bridge	*>Label>Bridge	*>Label>Bridge	*>Label>Bridge	*>Label>Bridge	*>Label>Bridge
4r	.	1Bm	newline	voice	.	185.746	B:1
4F#	I	.	.	.	.	.	.
4F#	walked	.	.	.	.	.	.
8E	the	.	.	.	.	.	.
[8F#	ward	.	.	.	.	.	.
=130	=130	=130	=130	=130	=130	=130	=130
4F#]	_	1Bm	.	voice	.	187.18	B:1
4r	.	.	.	.	.	.	.
4r	.	.	.	.	.	.	.
8E	with	.	.	.	.	.	.
[8F#	you	.	.	.	.	.	.
=131	=131	=131	=131	=131	=131	=131	=131
4.F#]	_	1Bm	.	voice	.	188.614	B:1
[8BB	babe.	.	.	.	.	.	.
2BB_	_	.	.	.	.	.	.
=132	=132	=132	=132	=132	=132	=132	=132
4BB]	_	1Bm	.	voice	.	190.048	B:1
4r	.	.	.	.	.	.	.
2r	.	.	.	.	.	.	.
=133	=133	=133	=133	=133	=133	=133	=133
4r	.	1AM	newline	voice	.	191.482	A:1
4F#	A	.	.	.	.	.	.
4F#	thou-	.	.	.	.	.	.
4F#	-sand	.	.	.	.	.	.
=134	=134	=134	=134	=134	=134	=134	=134
2F#	miles	1AM	.	voice	.	192.915	A:1
4r	.	.	.	.	.	.	.
8F#	with	.	.	.	.	.	.
[8BB	you.	.	.	.	.	.	.
=135	=135	=135	=135	=135	=135	=135	=135
1BB]	_	1GM	.	voice	.	194.347	G:1
=136	=136	=136	=136	=136	=136	=136	=136
1r	.	2Em	.	voice	.	195.78	E:1
.	.	4DM	.	voice	.	196.496	D:1
.	.	4AM	.	voice	.	196.854	A:1
=137	=137	=137	=137	=137	=137	=137	=137
4r	.	1Bm	newline	voice	.	197.212	B:1
4F#	I	.	.	.	.	.	.
4F#	dried	.	.	.	.	.	.
4F#	your	.	.	.	.	.	.
=138	=138	=138	=138	=138	=138	=138	=138
2F#	tears	1Bm	.	voice	.	198.657	B:1
4r	.	.	.	.	.	.	.
8E	of	.	.	.	.	.	.
8r	.	.	.	.	.	.	.
=139	=139	=139	=139	=139	=139	=139	=139
8r	.	1Bm	.	voice	.	200.101	B:1
2F#	pain	.	.	.	.	.	.
8r	.	.	.	.	.	.	.
[4BB	babe.	.	.	.	.	.	.
=140	=140	=140	=140	=140	=140	=140	=140
2BB]	_	1Bm	.	voice	.	201.546	B:1
2r	.	.	.	.	.	.	.
=141	=141	=141	=141	=141	=141	=141	=141
4r	.	1AM	newline	voice	.	202.99	A:1
4F#	A	.	.	.	.	.	.
4F#	mill-	.	.	.	.	.	.
4F#	-ion	.	.	.	.	.	.
=142	=142	=142	=142	=142	=142	=142	=142
2F#	times	1AM	.	voice	.	204.444	A:1
4r	.	.	.	.	.	.	.
8F#	for	.	.	.	.	.	.
[8F#	you.	.	.	.	.	.	.
=143	=143	=143	=143	=143	=143	=143	=143
1F#]	_	1GM	.	voice	.	205.898	G:1
=144	=144	=144	=144	=144	=144	=144	=144
1r	.	2Em	.	voice	.	207.353	E:1
.	.	4DM	.	voice	.	208.08	D:1
.	.	4AM	.	voice	.	208.443	A:1
=145	=145	=145	=145	=145	=145	=145	=145
4r	.	1Bm	newline	voice	.	208.807	B:min
4F#	I'd	.	.	.	.	.	.
4F#	sell	.	.	.	.	.	.
4F#	my	.	.	.	.	.	.
=146	=146	=146	=146	=146	=146	=146	=146
2F#	soul	1Bm	.	voice	.	210.246	B:min
2r	.	.	.	.	.	.	.
=147	=147	=147	=147	=147	=147	=147	=147
4.F#	you	1Bm	.	voice	.	211.685	B:min
[8BB	babe:	.	.	.	.	.	.
2BB_	_	.	.	.	.	.	.
=148	=148	=148	=148	=148	=148	=148	=148
2BB]	_	1Bm	.	voice	.	213.124	B:min
2r	.	.	.	.	.	.	.
=149	=149	=149	=149	=149	=149	=149	=149
4r	.	1DM	newline	voice	.	214.563	D:maj/5
8F#	for	.	.	.	.	.	.
8E	_	.	.	.	.	.	.
8F#	mon-	.	.	.	.	.	.
8F#	-ey	.	.	.	.	.	.
8E	to	.	.	.	.	.	.
[8F#	burn	.	.	.	.	.	.
=150	=150	=150	=150	=150	=150	=150	=150
2F#]	_	1DM	.	voice	.	216.024	D:maj/5
4r	.	.	.	.	.	.	.
8E	with	.	.	.	.	.	.
[8F#	you.	.	.	.	.	.	.
=151	=151	=151	=151	=151	=151	=151	=151
2F#]	_	1GMM	.	voice	.	217.485	G:maj7
2r	.	.	.	.	.	.	.
=152	=152	=152	=152	=152	=152	=152	=152
1r	.	2Emm	.	voice	.	218.946	E:min7
.	.	4DM	.	voice	.	219.677	D:1
.	.	4AM	.	voice	.	220.042	A:1
=153	=153	=153	=153	=153	=153	=153	=153
4r	.	1Bm	newline	voice	.	220.407	B:min
4f#	I'd	.	.	.	.	.	.
8f#	give	.	.	.	.	.	.
4f#	you	.	.	.	.	.	.
8f#	all	.	.	.	.	.	.
=154	=154	=154	=154	=154	=154	=154	=154
[2e	_	1Bm	.	voice	.	221.833	B:min
8e]	_	.	.	.	.	.	.
8f#	and	.	.	.	.	.	.
4f#	have	.	.	.	.	.	.
=155	=155	=155	=155	=155	=155	=155	=155
4.f#	none	1Bm	.	voice	.	223.26	B:min
[8B	babe:	.	.	.	.	.	.
2B]	_	.	.	.	.	.	.
=156	=156	=156	=156	=156	=156	=156	=156
2r	.	1Bm	.	voice	.	224.686	B:min
8r	.	.	.	.	.	.	.
4f#	Just	.	.	.	.	.	.
8e#	to	.	.	.	.	.	.
=157	=157	=157	=157	=157	=157	=157	=157
4r	.	1DM	newline	voice	.	226.112	D:maj/5
8f#	just	.	.	.	.	.	.
8e	to	.	.	.	.	.	.
4r	.	.	.	.	.	.	.
8f#	just	.	.	.	.	.	.
8e	to	.	.	.	.	.	.
=158	=158	=158	=158	=158	=158	=158	=158
8r	.	1DM	.	voice	.	227.541	D:maj/5
8B	a	.	.	.	.	.	.
8f#	just	.	.	.	.	.	.
8e	to	.	.	.	.	.	.
8r	.	.	.	.	.	.	.
8B	to	.	.	.	.	.	.
8f#	have	.	.	.	.	.	.
8e	you	.	.	.	.	.	.
=159	=159	=159	=159	=159	=159	=159	=159
4f#	here	1GMM	.	voice	.	228.97	G:maj7
4f#	by	.	.	.	.	.	.
8f#	me	.	.	.	.	.	.
4.f	_	.	.	.	.	.	.
=160	=160	=160	=160	=160	=160	=160	=160
4r	.	1GMM	.	voice	.	230.398	G:maj7
8f#	be-	.	.	.	.	.	.
8f#	-cause!	.	.	.	.	.	.
4f	_	.	.	.	.	.	.
4r	.	.	.	.	.	.	.
=161	=161	=161	=161	=161	=161	=161	=161
*>Letter>C	*>Letter>C	*>Letter>C	*>Letter>C	*>Letter>C	*>Letter>C	*>Letter>C	*>Letter>C
*>Label>Chorus	*>Label>Chorus	*>Label>Chorus	*>Label>Chorus	*>Label>Chorus	*>Label>Chorus	*>Label>Chorus	*>Label>Chorus
4r	.	1Bm	newline	voice	.	231.827	B:min
8f#	In	.	.	.	.	.	.
8f#	the	.	.	.	.	.	.
8f#	mid-	.	.	.	.	.	.
4f#	-night	.	.	.	.	.	.
8f#	hour	.	.	.	.	.	.
=162	=162	=162	=162	=162	=162	=162	=162
4.f	_	1Bm	.	voice	.	233.275	B:min
8r	.	.	.	.	.	.	.
8r	.	.	.	.	.	.	.
8e	she	.	.	.	.	.	.
4f#	cried	.	.	.	.	.	.
=163	=163	=163	=163	=163	=163	=163	=163
4f#	more	1Bm	.	voice	.	234.723	B:min
4r	.	.	.	.	.	.	.
4e	more	.	.	.	.	.	.
8r	.	.	.	.	.	.	.
[8B	more.	.	.	.	.	.	.
=164	=164	=164	=164	=164	=164	=164	=164
4B]	_	1Bm	.	voice	.	236.172	B:min
4r	.	.	.	.	.	.	.
2r	.	.	.	.	.	.	.
=165	=165	=165	=165	=165	=165	=165	=165
4r	.	1DM	newline	voice	.	237.62	D:maj/5
8f#	With	.	.	.	.	.	.
8f#	a	.	.	.	.	.	.
8f#	re-	.	.	.	.	.	.
4f#	-bel	.	.	.	.	.	.
8f#	yell	.	.	.	.	.	.
=166	=166	=166	=166	=166	=166	=166	=166
4.f	_	1DM	.	voice	.	239.076	D:maj/5
8r	.	.	.	.	.	.	.
8r	.	.	.	.	.	.	.
8e	she	.	.	.	.	.	.
4f#	cried	.	.	.	.	.	.
=167	=167	=167	=167	=167	=167	=167	=167
4f#	more	1GMM	.	voice	.	240.531	G:maj7
4r	.	.	.	.	.	.	.
4e	more	.	.	.	.	.	.
8r	.	.	.	.	.	.	.
[8B	more.	.	.	.	.	.	.
=168	=168	=168	=168	=168	=168	=168	=168
8B]	_	2Emm	.	voice	.	241.987	E:min7
8d	_	.	.	.	.	.	.
4.B	_	.	.	.	.	.	.
.	.	4DM	.	voice	.	242.715	D:1
8r	.	.	.	.	.	.	.
4r	.	4AM	.	voice	.	243.079	A:1
=169	=169	=169	=169	=169	=169	=169	=169
4r	.	1Bm	newline	voice	.	243.443	B:min
8f#	In	.	.	.	.	.	.
8f#	the	.	.	.	.	.	.
8f#	mid-	.	.	.	.	.	.
4f#	-night	.	.	.	.	.	.
8f#	hour	.	.	.	.	.	.
=170	=170	=170	=170	=170	=170	=170	=170
4f	_	1Bm	.	voice	.	244.875	B:min
2d	babe.	.	.	.	.	.	.
4r	.	.	.	.	.	.	.
=171	=171	=171	=171	=171	=171	=171	=171
4f#	more	1Bm	.	voice	.	246.306	B:min
4r	.	.	.	.	.	.	.
4e	more	.	.	.	.	.	.
8r	.	.	.	.	.	.	.
[8B	more.	.	.	.	.	.	.
=172	=172	=172	=172	=172	=172	=172	=172
2B]	_	1Bm	.	voice	.	247.738	B:min
2r	.	.	.	.	.	.	.
=173	=173	=173	=173	=173	=173	=173	=173
4r	.	1DM	newline	voice	.	249.169	D:maj/5
8f#	With	.	.	.	.	.	.
8f#	a	.	.	.	.	.	.
8f#	re-	.	.	.	.	.	.
4f#	-bel	.	.	.	.	.	.
8f#	yell	.	.	.	.	.	.
=174	=174	=174	=174	=174	=174	=174	=174
2f	_	1DM	.	voice	.	250.604	D:maj/5
8r	.	.	.	.	.	.	.
8e	she	.	.	.	.	.	.
4f#	cried	.	.	.	.	.	.
=175	=175	=175	=175	=175	=175	=175	=175
2f#	more	1GMM	.	voice	.	252.04	G:maj7
4.e	more	.	.	.	.	.	.
[8f#	more.	.	.	.	.	.	.
=176	=176	=176	=176	=176	=176	=176	=176
4f#]	_	1GMM	.	voice	.	253.475	G:maj7
4r	.	.	.	.	.	.	.
4f#	more	.	.	.	.	.	.
4f#	more	.	.	.	.	.	.
=177	=177	=177	=177	=177	=177	=177	=177
*>Letter>C	*>Letter>C	*>Letter>C	*>Letter>C	*>Letter>C	*>Letter>C	*>Letter>C	*>Letter>C
*>Label>Solo	*>Label>Solo	*>Label>Solo	*>Label>Solo	*>Label>Solo	*>Label>Solo	*>Label>Solo	*>Label>Solo
4f#	more.	1Bmm	newline	guitar	.	254.91	B:min7
4B	_	.	.	.	.	.	.
2r	.	.	.	.	.	.	.
=178	=178	=178	=178	=178	=178	=178	=178
1r	.	1Bmm	.	guitar	.	256.365	B:min7
=179	=179	=179	=179	=179	=179	=179	=179
1r	.	1Bmm	.	guitar	.	257.82	B:min7
=180	=180	=180	=180	=180	=180	=180	=180
4r	.	1Bmm	.	guitar	.	259.275	B:min7
8f#	Ooh	.	.	.	.	.	.
4e	yeah	.	.	.	.	.	.
8d	a	.	.	.	.	.	.
8e	lit-	.	.	.	.	.	.
8f#	-tle	.	.	.	.	.	.
=181	=181	=181	=181	=181	=181	=181	=181
4e	ba-	1DM	newline	guitar	.	260.73	D:maj/5
2d	-by.	.	.	.	.	.	.
4r	.	.	.	.	.	.	.
=182	=182	=182	=182	=182	=182	=182	=182
2r	.	1DM	.	guitar	.	262.164	D:maj/5
8r	.	.	.	.	.	.	.
8e	she	.	.	.	.	.	.
8f#	want	.	.	.	.	.	.
[8B	more.	.	.	.	.	.	.
=183	=183	=183	=183	=183	=183	=183	=183
4B]	_	1GMM	.	guitar	.	263.599	G:maj7
4r	.	.	.	.	.	.	.
2r	.	.	.	.	.	.	.
=184	=184	=184	=184	=184	=184	=184	=184
4f#	More	2Emm	.	guitar	.	265.034	E:min7
4f#	more	.	.	.	.	.	.
4f#	more	4DM	.	guitar	.	265.751	D:1
4f#	more	4AM	.	guitar	.	266.109	A:1
=185	=185	=185	=185	=185	=185	=185	=185
4f#	more.	1Bmm	newline	guitar	.	266.468	B:min7
2B	_	.	.	.	.	.	.
4r	.	.	.	.	.	.	.
=186	=186	=186	=186	=186	=186	=186	=186
1r	.	1Bmm	.	guitar	.	267.915	B:min7
=187	=187	=187	=187	=187	=187	=187	=187
4r	.	1Bmm	.	guitar	.	269.361	B:min7
8f#	Ooh	.	.	.	.	.	.
4e	yeah	.	.	.	.	.	.
8d	a	.	.	.	.	.	.
8e	lit-	.	.	.	.	.	.
8f#	-tle	.	.	.	.	.	.
=188	=188	=188	=188	=188	=188	=188	=188
4e	an-	1Bmm	.	guitar	.	270.808	B:min7
2d	-gel.	.	.	.	.	.	.
4r	.	.	.	.	.	.	.
=189	=189	=189	=189	=189	=189	=189	=189
1r	.	1DM	newline	guitar	.	272.255	D:maj/5
=190	=190	=190	=190	=190	=190	=190	=190
2r	.	1DM	.	guitar	.	273.695	D:maj/5
8r	.	.	.	.	.	.	.
8e	she	.	.	.	.	.	.
8f#	want	.	.	.	.	.	.
[8B	more.	.	.	.	.	.	.
=191	=191	=191	=191	=191	=191	=191	=191
8B]	_	1GMM	.	guitar	.	275.136	G:maj7
8r	.	.	.	.	.	.	.
4r	.	.	.	.	.	.	.
2r	.	.	.	.	.	.	.
=192	=192	=192	=192	=192	=192	=192	=192
4f#	More	2Emm	.	guitar	.	276.577	E:min7
4f#	more	.	.	.	.	.	.
4f#	more	4DM	.	guitar	.	277.297	D:1
4f#	more	4AM	.	guitar	.	277.657	A:1
=193	=193	=193	=193	=193	=193	=193	=193
*>Letter>A	*>Letter>A	*>Letter>A	*>Letter>A	*>Letter>A	*>Letter>A	*>Letter>A	*>Letter>A
*>Label>Outro	*>Label>Outro	*>Label>Outro	*>Label>Outro	*>Label>Outro	*>Label>Outro	*>Label>Outro	*>Label>Outro
4f#	more.	1Bmm	newline	synthesizer	.	278.017	B:min7
2B	_	.	.	.	.	.	.
4r	.	.	.	.	.	.	.
=194	=194	=194	=194	=194	=194	=194	=194
1r	.	1Bmm	.	synthesizer	.	279.47	B:min7
=195	=195	=195	=195	=195	=195	=195	=195
1r	.	1Bmm	.	synthesizer	.	280.924	B:min7
=196	=196	=196	=196	=196	=196	=196	=196
1r	.	1Bmm	.	synthesizer	.	282.377	B:min7
=197	=197	=197	=197	=197	=197	=197	=197
1r	.	1Bmm	newline	synthesizer	.	283.83	B:min7
r;	.	1r;	.	r	.	285.884	N.C.
r;	.	1r;	.	r	.	290.664	N.C.
*-	*-	*-	*-	*-	*-	*-	*-
!!!BillboardChartDate: 1984/04/07
!!!BillboardPeak: 46
!!!BillboardWeeksOnChart: 14
!!!COC: Billy Idol
!!!ENC: Nathaniel Condit-Schultz
!!!EST: Awating manual error checking and editing.
!!!OTL: Rebel Yell
!!!RDF**chordsym: original McGill chord annotation + (implied pitch class set, with bass pitch in first position)
!!!RDF**harmony: **recip + pitch class of root + harmonic quality
!!!RDF**leadinstrument: original McGill primary instrumentation annotation
!!!RDF**phrase: newline = linebreak in original McGill transcription
!!!RDF**timestamp: McGill audio timestamp in seconds
!!!RDT: 2017/01/12/
!!!SampleActualRank: 61
!!!SampleID#: 1167
!!!SampleTargetRank: 61
